build/service/CloseOutline.svg

<svg xmlns="http://www.w3.org/2000/svg" fill="none" viewBox="0 0 24 24" focusable="false"><path d="M0 0H24V24H0z"/><path fill="#74767B" d="M6.40942 5.49006C6.15558 5.23622 5.74403 5.23622 5.49019 5.49006C5.23634 5.7439 5.23634 6.15546 5.49019 6.4093L11.0808 11.9999L5.59065 17.4901C5.33681 17.7439 5.33681 18.1555 5.59065 18.4093C5.84449 18.6631 6.25605 18.6631 6.50989 18.4093L12 12.9192L17.4902 18.4093C17.744 18.6631 18.1556 18.6631 18.4094 18.4093C18.6633 18.1555 18.6633 17.7439 18.4094 17.4901L12.9193 11.9999L18.5099 6.4093C18.7637 6.15546 18.7637 5.7439 18.5099 5.49006C18.256 5.23622 17.8445 5.23622 17.5906 5.49006L12 11.0807L6.40942 5.49006Z"/></svg>

<svg xmlns="http://www.w3.org/2000/svg" fill="none" viewBox="0 0 24 24" focusable="false"><path fill="#74767B" d="M6.4 5.49a.63.63 0 0 0-.91 0c-.26.25-.26.66 0 .91l5.59 5.59-5.49 5.5c-.26.25-.26.66 0 .91.25.26.66.26.91 0l5.5-5.49 5.49 5.49c.25.26.66.26.91 0 .26-.25.26-.66 0-.91l-5.49-5.5L18.5 6.4c.26-.25.26-.66 0-.91a.63.63 0 0 0-.91 0L12 11.08z"/></svg>
